X:93
T:Johnny, Come Down The Backstay
M:C|
L:1/8
Q:1/4=3D150
K:E
B,2|\
B,2E2 E2E2|D2 B,6|EEE2 E3E|D2 F4 B,2|
B,2D2 F2A2|G2 E6 |EEE2 E3E|G2 B6 |
E4    G3A |B2 e6 |EEE2 E3E|D2 B,6|
E4    E3E |D2 F6 |EEE2 E3E|G2 B6 |
E4    G3A |B2 e6 ||
